static/img/kroki/6fbbca5c948d3335b07fb2a6663b9799.svg

<?xml version="1.0" encoding="us-ascii" standalone="no"?><svg xmlns="http://www.w3.org/2000/svg" xmlns:xlink="http://www.w3.org/1999/xlink" contentStyleType="text/css" height="573px" preserveAspectRatio="none" style="width:414px;height:573px;" version="1.1" viewBox="0 0 414 573" width="414px" zoomAndPan="magnify"><defs/><g><!--class ai_job--><g id="elem_ai_job"><rect codeLine="23" fill="#3D176E" height="39.7891" id="ai_job" rx="2.5" ry="2.5" style="stroke:#000D19;stroke-width:0.5;" width="91" x="105.5" y="367.37"/><ellipse cx="120.5" cy="387.2645" fill="#ADD1B2" rx="11" ry="11" style="stroke:#181818;stroke-width:1.0;"/><path d="M123.4688,392.9052 Q122.8906,393.202 122.25,393.3427 Q121.6094,393.4989 120.9063,393.4989 Q118.4063,393.4989 117.0781,391.8583 Q115.7656,390.202 115.7656,387.077 Q115.7656,383.952 117.0781,382.2958 Q118.4063,380.6395 120.9063,380.6395 Q121.6094,380.6395 122.25,380.7958 Q122.9063,380.952 123.4688,381.2489 L123.4688,383.9677 Q122.8438,383.3895 122.25,383.1239 Q121.6563,382.8427 121.0313,382.8427 Q119.6875,382.8427 119,383.9208 Q118.3125,384.9833 118.3125,387.077 Q118.3125,389.1708 119,390.2489 Q119.6875,391.3114 121.0313,391.3114 Q121.6563,391.3114 122.25,391.0458 Q122.8438,390.7645 123.4688,390.1864 L123.4688,392.9052 Z " fill="#000000"/><text fill="#D9B8FF" font-family="Helvetica" font-size="17" lengthAdjust="spacing" textLength="49" x="139.5" y="393.1498">ai_job</text></g><!--class ai_resource--><g id="elem_ai_resource"><rect codeLine="26" fill="#3D176E" height="39.7891" id="ai_resource" rx="2.5" ry="2.5" style="stroke:#000D19;stroke-width:0.5;" width="137" x="71.5" y="167.79"/><ellipse cx="86.5" cy="187.6845" fill="#ADD1B2" rx="11" ry="11" style="stroke:#181818;stroke-width:1.0;"/><path d="M89.4688,193.3252 Q88.8906,193.622 88.25,193.7627 Q87.6094,193.9189 86.9063,193.9189 Q84.4063,193.9189 83.0781,192.2783 Q81.7656,190.622 81.7656,187.497 Q81.7656,184.372 83.0781,182.7158 Q84.4063,181.0595 86.9063,181.0595 Q87.6094,181.0595 88.25,181.2158 Q88.9063,181.372 89.4688,181.6689 L89.4688,184.3877 Q88.8438,183.8095 88.25,183.5439 Q87.6563,183.2627 87.0313,183.2627 Q85.6875,183.2627 85,184.3408 Q84.3125,185.4033 84.3125,187.497 Q84.3125,189.5908 85,190.6689 Q85.6875,191.7314 87.0313,191.7314 Q87.6563,191.7314 88.25,191.4658 Q88.8438,191.1845 89.4688,190.6064 L89.4688,193.3252 Z " fill="#000000"/><text fill="#D9B8FF" font-family="Helvetica" font-size="17" lengthAdjust="spacing" textLength="95" x="105.5" y="193.5698">ai_resource</text></g><!--class gcp_resource--><g id="elem_gcp_resource"><rect codeLine="29" fill="#3D176E" height="39.7891" id="gcp_resource" rx="2.5" ry="2.5" style="stroke:#000D19;stroke-width:0.5;" width="150" x="190" y="267.58"/><ellipse cx="205" cy="287.4745" fill="#ADD1B2" rx="11" ry="11" style="stroke:#181818;stroke-width:1.0;"/><path d="M207.9688,293.1152 Q207.3906,293.412 206.75,293.5527 Q206.1094,293.7089 205.4063,293.7089 Q202.9063,293.7089 201.5781,292.0683 Q200.2656,290.412 200.2656,287.287 Q200.2656,284.162 201.5781,282.5058 Q202.9063,280.8495 205.4063,280.8495 Q206.1094,280.8495 206.75,281.0058 Q207.4063,281.162 207.9688,281.4589 L207.9688,284.1777 Q207.3438,283.5995 206.75,283.3339 Q206.1563,283.0527 205.5313,283.0527 Q204.1875,283.0527 203.5,284.1308 Q202.8125,285.1933 202.8125,287.287 Q202.8125,289.3808 203.5,290.4589 Q204.1875,291.5214 205.5313,291.5214 Q206.1563,291.5214 206.75,291.2558 Q207.3438,290.9745 207.9688,290.3964 L207.9688,293.1152 Z " fill="#000000"/><text fill="#D9B8FF" font-family="Helvetica" font-size="17" lengthAdjust="spacing" textLength="108" x="224" y="293.3598">gcp_resource</text></g><!--class gcp_vertex_ai_hyperparameter_tuning_job--><g id="elem_gcp_vertex_ai_hyperparameter_tuning_job"><rect codeLine="32" fill="#3D176E" height="39.7891" id="gcp_vertex_ai_hyperparameter_tuning_job" rx="2.5" ry="2.5" style="stroke:#000D19;stroke-width:0.5;" width="400" x="7" y="528.16"/><ellipse cx="22" cy="548.0545" fill="#ADD1B2" rx="11" ry="11" style="stroke:#181818;stroke-width:1.0;"/><path d="M24.9688,553.6952 Q24.3906,553.992 23.75,554.1327 Q23.1094,554.2889 22.4063,554.2889 Q19.9063,554.2889 18.5781,552.6483 Q17.2656,550.992 17.2656,547.867 Q17.2656,544.742 18.5781,543.0858 Q19.9063,541.4295 22.4063,541.4295 Q23.1094,541.4295 23.75,541.5858 Q24.4063,541.742 24.9688,542.0389 L24.9688,544.7577 Q24.3438,544.1795 23.75,543.9139 Q23.1563,543.6327 22.5313,543.6327 Q21.1875,543.6327 20.5,544.7108 Q19.8125,545.7733 19.8125,547.867 Q19.8125,549.9608 20.5,551.0389 Q21.1875,552.1014 22.5313,552.1014 Q23.1563,552.1014 23.75,551.8358 Q24.3438,551.5545 24.9688,550.9764 L24.9688,553.6952 Z " fill="#000000"/><text fill="#D9B8FF" font-family="Helvetica" font-size="17" lengthAdjust="spacing" textLength="358" x="41" y="553.9398">gcp_vertex_ai_hyperparameter_tuning_job</text></g><!--class resource--><g id="elem_resource"><rect codeLine="35" fill="#3D176E" height="39.7891" id="resource" rx="2.5" ry="2.5" style="stroke:#000D19;stroke-width:0.5;" width="113" x="145.5" y="7"/><ellipse cx="160.5" cy="26.8945" fill="#ADD1B2" rx="11" ry="11" style="stroke:#181818;stroke-width:1.0;"/><path d="M163.4688,32.5352 Q162.8906,32.832 162.25,32.9727 Q161.6094,33.1289 160.9063,33.1289 Q158.4063,33.1289 157.0781,31.4883 Q155.7656,29.832 155.7656,26.707 Q155.7656,23.582 157.0781,21.9258 Q158.4063,20.2695 160.9063,20.2695 Q161.6094,20.2695 162.25,20.4258 Q162.9063,20.582 163.4688,20.8789 L163.4688,23.5977 Q162.8438,23.0195 162.25,22.7539 Q161.6563,22.4727 161.0313,22.4727 Q159.6875,22.4727 159,23.5508 Q158.3125,24.6133 158.3125,26.707 Q158.3125,28.8008 159,29.8789 Q159.6875,30.9414 161.0313,30.9414 Q161.6563,30.9414 162.25,30.6758 Q162.8438,30.3945 163.4688,29.8164 L163.4688,32.5352 Z " fill="#000000"/><text fill="#D9B8FF" font-family="Helvetica" font-size="17" lengthAdjust="spacing" textLength="71" x="179.5" y="32.7798">resource</text></g><!--reverse link ai_resource to ai_job--><g id="link_ai_resource_ai_job"><path codeLine="38" d="M142.074,225.962 C144.184,263.732 147.81,329.05 149.92,366.88 " fill="none" id="ai_resource-backto-ai_job" style="stroke:#FFAF37;stroke-width:2.0;"/><polygon fill="none" points="141.07,207.99,136.0833,226.2966,148.0647,225.6273,141.07,207.99" style="stroke:#FFAF37;stroke-width:2.0;"/></g><!--reverse link resource to ai_resource--><g id="link_resource_ai_resource"><path codeLine="39" d="M187.9716,63.8166 C176.0516,94.3366 159.44,136.9 147.51,167.47 " fill="none" id="resource-backto-ai_resource" style="stroke:#FFAF37;stroke-width:2.0;"/><polygon fill="none" points="194.52,47.05,182.3827,61.6338,193.5604,65.9994,194.52,47.05" style="stroke:#FFAF37;stroke-width:2.0;"/></g><!--reverse link resource to gcp_resource--><g id="link_resource_gcp_resource"><path codeLine="40" d="M210.8895,64.3988 C222.5095,112.1088 248.55,218.98 260.28,267.08 " fill="none" id="resource-backto-gcp_resource" style="stroke:#FFAF37;stroke-width:2.0;"/><polygon fill="none" points="206.63,46.91,205.0599,65.8186,216.7191,62.9789,206.63,46.91" style="stroke:#FFAF37;stroke-width:2.0;"/></g><!--reverse link ai_job to gcp_vertex_ai_hyperparameter_tuning_job--><g id="link_ai_job_gcp_vertex_ai_hyperparameter_tuning_job"><path codeLine="41" d="M163.7399,424.3941 C174.5099,454.9141 189.44,497.27 200.22,527.83 " fill="none" id="ai_job-backto-gcp_vertex_ai_hyperparameter_tuning_job" style="stroke:#FFAF37;stroke-width:2.0;"/><polygon fill="none" points="157.75,407.42,158.0818,426.3908,169.3979,422.3975,157.75,407.42" style="stroke:#FFAF37;stroke-width:2.0;"/></g><!--reverse link gcp_resource to gcp_vertex_ai_hyperparameter_tuning_job--><g id="link_gcp_resource_gcp_vertex_ai_hyperparameter_tuning_job"><path codeLine="42" d="M256.8002,325.0535 C246.1002,372.7535 222.14,479.56 211.35,527.66 " fill="none" id="gcp_resource-backto-gcp_vertex_ai_hyperparameter_tuning_job" style="stroke:#FFAF37;stroke-width:2.0;"/><polygon fill="none" points="260.74,307.49,250.9457,323.7403,262.6547,326.3668,260.74,307.49" style="stroke:#FFAF37;stroke-width:2.0;"/></g><!--SRC=[bP1BRy8m48Jl_XMME2E5eZOWzKAHglQ2gj8xSk8rSKdiQBs1qiT_RtWLnodGNcS-xymuqn8u52MjUG550kYOMsXJ2XG57o7QrTZc5db7AQ7wSMZUMqCNWOaeW3z0lWJIgGY9bqod2mFEyIlFkXFfOewsCd9tdb0OLrjWoAF6kN1kH8GwgGYyCdAO39GAoV1efozxyGsqC8iIS8z4KIHxmn2v67LszmynrU_0U_wdJIn1gsOhOakTRRaXl9AjeGV_PCSd8QKsStxjQS-xJcW06_eq4zAkDhGIkVDZ7062fNK9uzOg60waYd-57q_1BDry7HTwzceJ_i7Orr51SBR257nvdfOdzIKWmTkiVfdLaRZj07M56LMctX8cDC_uURUVtMvttucrrOCIMdutjbzqTFxGZZNM_U_fDm00]--></g></svg>

<svg xmlns="http://www.w3.org/2000/svg" width="414" height="573" viewBox="0 0 414 573"><rect width="91" height="39.789" x="105.5" y="367.37" fill="#3D176E" rx="2.5" ry="2.5" style="stroke:#000d19;stroke-width:.5"/><circle cx="120.5" cy="387.264" r="11" fill="#ADD1B2" style="stroke:#181818;stroke-width:1"/><path d="M123.469 392.905q-.578.297-1.219.438-.64.156-1.344.156-2.5 0-3.828-1.64-1.312-1.657-1.312-4.782t1.312-4.781q1.328-1.656 3.828-1.656.703 0 1.344.156.656.156 1.219.453v2.719q-.625-.579-1.219-.844-.594-.281-1.219-.281-1.344 0-2.031 1.078-.687 1.062-.687 3.156t.687 3.172q.688 1.062 2.031 1.062.625 0 1.219-.265.594-.281 1.219-.86z"/><text x="139.5" y="393.15" fill="#D9B8FF" font-family="Helvetica" font-size="17" textLength="49">ai_job</text><rect width="137" height="39.789" x="71.5" y="167.79" fill="#3D176E" rx="2.5" ry="2.5" style="stroke:#000d19;stroke-width:.5"/><circle cx="86.5" cy="187.685" r="11" fill="#ADD1B2" style="stroke:#181818;stroke-width:1"/><path d="M89.469 193.325q-.578.297-1.219.438-.64.156-1.344.156-2.5 0-3.828-1.64-1.312-1.657-1.312-4.782t1.312-4.781q1.328-1.656 3.828-1.656.703 0 1.344.156.656.156 1.219.453v2.719q-.625-.578-1.219-.844-.594-.281-1.219-.281-1.344 0-2.031 1.078-.687 1.062-.687 3.156t.687 3.172q.688 1.062 2.031 1.062.625 0 1.219-.265.594-.281 1.219-.86z"/><text x="105.5" y="193.57" fill="#D9B8FF" font-family="Helvetica" font-size="17" textLength="95">ai_resource</text><rect width="150" height="39.789" x="190" y="267.58" fill="#3D176E" rx="2.5" ry="2.5" style="stroke:#000d19;stroke-width:.5"/><circle cx="205" cy="287.474" r="11" fill="#ADD1B2" style="stroke:#181818;stroke-width:1"/><path d="M207.969 293.115q-.578.297-1.219.438-.64.156-1.344.156-2.5 0-3.828-1.64-1.312-1.657-1.312-4.782t1.312-4.781q1.328-1.656 3.828-1.656.703 0 1.344.156.656.156 1.219.453v2.719q-.625-.579-1.219-.844-.594-.281-1.219-.281-1.344 0-2.031 1.078-.687 1.062-.687 3.156t.687 3.172q.688 1.062 2.031 1.062.625 0 1.219-.265.594-.281 1.219-.86z"/><text x="224" y="293.36" fill="#D9B8FF" font-family="Helvetica" font-size="17" textLength="108">gcp_resource</text><rect width="400" height="39.789" x="7" y="528.16" fill="#3D176E" rx="2.5" ry="2.5" style="stroke:#000d19;stroke-width:.5"/><circle cx="22" cy="548.054" r="11" fill="#ADD1B2" style="stroke:#181818;stroke-width:1"/><path d="M24.969 553.695q-.578.297-1.219.438-.64.156-1.344.156-2.5 0-3.828-1.64-1.312-1.657-1.312-4.782t1.312-4.781q1.328-1.657 3.828-1.657.703 0 1.344.157.656.156 1.219.453v2.719q-.625-.579-1.219-.844-.594-.281-1.219-.281-1.343 0-2.031 1.078-.687 1.062-.687 3.156t.687 3.172q.688 1.062 2.031 1.062.625 0 1.219-.265.594-.282 1.219-.86z"/><text x="41" y="553.94" fill="#D9B8FF" font-family="Helvetica" font-size="17" textLength="358">gcp_vertex_ai_hyperparameter_tuning_job</text><rect width="113" height="39.789" x="145.5" y="7" fill="#3D176E" rx="2.5" ry="2.5" style="stroke:#000d19;stroke-width:.5"/><circle cx="160.5" cy="26.895" r="11" fill="#ADD1B2" style="stroke:#181818;stroke-width:1"/><path d="M163.469 32.535q-.578.297-1.219.438-.64.156-1.344.156-2.5 0-3.828-1.64-1.312-1.657-1.312-4.782t1.312-4.781q1.328-1.656 3.828-1.656.703 0 1.344.156.656.156 1.219.453v2.719q-.625-.578-1.219-.844-.594-.281-1.219-.281-1.344 0-2.031 1.078-.687 1.062-.687 3.156t.687 3.172q.688 1.062 2.031 1.062.625 0 1.219-.265.594-.281 1.219-.86z"/><text x="179.5" y="32.78" fill="#D9B8FF" font-family="Helvetica" font-size="17" textLength="71">resource</text><g fill="none"><path d="M142.074 225.962c2.11 37.77 5.736 103.088 7.846 140.918" style="stroke:#ffaf37;stroke-width:2"/><path d="m141.07 207.99-4.987 18.307 11.982-.67z" style="stroke:#ffaf37;stroke-width:2"/></g><path fill="none" d="M187.972 63.817c-11.92 30.52-28.532 73.083-40.462 103.653m47.01-120.42-12.137 14.584 11.177 4.365zm16.37 17.349c11.62 47.71 37.66 154.581 49.39 202.681M206.63 46.91l-1.57 18.909 11.66-2.84zm-42.89 377.484c10.77 30.52 25.7 72.876 36.48 103.436m-42.47-120.41.332 18.97 11.316-3.993zm99.05-82.366L211.35 527.66m49.39-220.17-9.794 16.25 11.709 2.627z" style="stroke:#ffaf37;stroke-width:2"/></svg>
